dist/assets/img/contacts/logo.svg

<svg width="142" height="23" viewBox="0 0 142 23" fill="none" xmlns="http://www.w3.org/2000/svg">
<g clip-path="url(#clip0)">
<path d="M2.17388 4.70226C2.17388 3.50712 2.02619 2.66057 1.78003 2.26219C1.53387 1.86381 1.09078 1.61482 0.5 1.51523V1.31604H6.65398V1.56503C6.0632 1.61482 5.66934 1.81401 5.37395 2.21239C5.12779 2.56097 4.9801 3.35773 4.9801 4.50307V7.6901L7.19553 5.89739C8.3771 4.90145 9.21404 4.15449 9.70636 3.60672C10.3464 2.95935 10.6418 2.46138 10.6418 2.16259C10.6418 1.91361 10.5925 1.76422 10.4941 1.71442C10.3956 1.61482 10.1987 1.56503 9.95252 1.56503V1.31604H16.1557V1.56503C15.2696 1.56503 14.4326 1.81401 13.5464 2.36178C13.3003 2.51118 12.5618 3.05895 11.331 4.10469L9.41097 5.6982C10.6418 6.89334 11.7741 8.23787 12.7095 9.78158C13.5957 11.1759 14.3834 12.7694 15.0726 14.5123L15.5649 15.7075C15.9096 16.554 16.1557 17.052 16.2542 17.2512C16.5988 17.7989 17.0419 18.0977 17.5342 18.1973V18.4463H11.9218V18.1973C12.5126 18.0977 12.808 17.7491 12.808 17.2014C12.808 16.554 12.5618 15.7075 12.1187 14.5621C11.7741 13.7654 11.3802 12.9188 10.8879 12.0723C10.3956 11.2257 9.90328 10.4289 9.3125 9.68199C8.77095 8.93503 8.13094 8.18807 7.39246 7.39131L4.93087 9.3832V15.0601C4.93087 16.056 4.9801 16.7532 5.12779 17.1516C5.37395 17.7989 5.86627 18.1973 6.60475 18.2471V18.4961H0.5V18.2471C1.23848 18.1475 1.68156 17.7491 1.92772 17.2014C2.07542 16.803 2.17388 16.1556 2.17388 15.2593V4.70226Z" fill="#FF3D00"/>
<path d="M25.9527 8.63639C26.0512 8.28781 26.1989 7.88943 26.2974 7.54085C26.3958 7.14247 26.4943 6.84369 26.4943 6.6445C26.4943 6.39551 26.4451 6.19632 26.2974 6.04693C26.1497 5.89754 25.9035 5.79794 25.5589 5.79794V5.59875H29.4974V5.84774C29.0051 5.89754 28.562 6.19632 28.2666 6.6943C28.1189 6.94328 27.922 7.39146 27.6759 8.18822L23.6881 19.791C23.0973 21.5339 22.408 22.729 21.6696 23.2768C21.0295 23.7748 20.2418 24.0238 19.2572 24.0238C18.8141 24.0238 18.371 23.9242 17.9279 23.7748C17.4849 23.6254 17.091 23.3764 16.6971 23.0776L18.1741 19.542L18.371 19.6914C18.3218 19.8906 18.2726 20.0898 18.2726 20.3388C18.2726 20.8865 18.4203 21.3347 18.6664 21.7331C18.9618 22.1315 19.3064 22.3307 19.7988 22.3307C20.5372 22.3307 21.128 21.9821 21.5711 21.2351C21.9157 20.5877 22.1127 19.8906 22.1127 19.044C22.1127 18.4963 21.965 17.7991 21.7188 17.0521C21.6203 16.7534 21.3249 16.106 20.9311 15.11L17.9279 8.13842C17.6325 7.39146 17.3864 6.94328 17.2387 6.6943C16.8941 6.19632 16.5002 5.94734 16.0571 5.94734V5.59875H21.2265V5.84774C20.9311 5.89754 20.7342 5.94734 20.5865 6.09673C20.4388 6.24612 20.3895 6.39551 20.3895 6.6445C20.3895 6.84369 20.4388 7.09267 20.5372 7.34166C20.6357 7.64044 20.7342 7.83963 20.7834 7.98903L23.7865 15.1598L25.9527 8.63639Z" fill="#FF3D00"/>
<path d="M40.9684 16.4048C41.2145 16.7534 41.5099 17.1517 41.7561 17.5003C42.1007 17.8987 42.4946 18.1477 42.8392 18.1975V18.4465H37.5221V18.1975C38.0637 18.1477 38.3099 17.8987 38.3099 17.5501C38.3099 17.3011 38.1622 16.9525 37.916 16.5044C37.6698 16.1558 37.4729 15.857 37.3252 15.6578L35.4052 12.7198L33.5344 15.0602C32.5005 16.4048 32.0082 17.2513 32.0082 17.5999C32.0082 17.8987 32.2543 18.0979 32.7959 18.1975V18.4465H28.8081V18.1975C29.1035 18.1477 29.3989 17.9983 29.645 17.7991C29.8912 17.5999 30.2851 17.1517 30.8266 16.4546L34.6667 11.674L32.5005 8.5368C31.6636 7.34166 31.1712 6.6445 31.0235 6.49511C30.5805 6.04693 30.1866 5.84774 29.842 5.84774V5.59875H35.3559V5.84774C34.7652 5.89754 34.519 6.14653 34.519 6.5449C34.519 6.74409 34.6175 7.04288 34.8144 7.34166C34.9621 7.59065 35.1098 7.88943 35.4052 8.23801L36.3898 9.68213L37.5221 8.13842C37.8668 7.64044 38.1129 7.34166 38.1622 7.19227C38.3591 6.84369 38.4576 6.5449 38.4576 6.34571C38.4576 5.99713 38.2114 5.84774 37.6698 5.84774V5.59875H41.953V5.84774C41.3622 5.89754 40.7222 6.24612 40.0822 6.84369C39.9345 6.99308 39.4422 7.59065 38.6545 8.58659L36.9314 10.6781L40.9684 16.4048Z" fill="#FF3D00"/>
<path d="M53.7197 10.9769H47.615V15.2096C47.615 16.4048 47.7134 17.2513 47.9596 17.5999C48.2057 17.9983 48.5996 18.1975 49.1412 18.1975V18.4465H43.4795V18.1975C44.1687 18.1975 44.6118 17.8987 44.8088 17.2513C44.9564 16.853 45.0057 16.1558 45.0057 15.2096V8.78578C45.0057 7.59065 44.9072 6.79389 44.6611 6.39551C44.4149 5.99713 44.021 5.79794 43.4795 5.79794V5.59875H49.1904V5.84774C48.5011 5.84774 48.0581 6.14653 47.8611 6.79389C47.7134 7.19227 47.6642 7.83963 47.6642 8.83558V9.88132H53.7197V8.83558C53.7197 7.64044 53.6213 6.84369 53.3751 6.44531C53.1289 6.04693 52.7351 5.89754 52.1935 5.89754V5.59875H57.9044V5.84774C57.2152 5.84774 56.7721 6.14653 56.5752 6.79389C56.4275 7.19227 56.3782 7.88943 56.3782 8.83558V15.2594C56.3782 16.4546 56.4767 17.2513 56.7229 17.6497C56.969 18.0481 57.3629 18.2473 57.9044 18.2473V18.4963H52.1935V18.2473C52.8828 18.2473 53.3259 17.9485 53.5228 17.3011C53.6705 16.9027 53.7197 16.2056 53.7197 15.2594V10.9769Z" fill="#FF3D00"/>
<path d="M69.2767 8.73599L63.2212 14.1141V15.2594C63.2212 16.4546 63.3197 17.2513 63.5659 17.6497C63.812 18.0481 64.2059 18.2473 64.7474 18.2473V18.4963H59.0365V18.2473C59.7258 18.1975 60.1689 17.8489 60.3658 17.2513C60.5135 16.853 60.5627 16.2056 60.5627 15.3092V8.78578C60.5627 7.83963 60.5135 7.19227 60.3658 6.84369C60.1196 6.19632 59.6766 5.84774 58.9873 5.79794V5.59875H64.6982V5.84774C64.0089 5.84774 63.5659 6.14653 63.3689 6.79389C63.2212 7.19227 63.172 7.88943 63.172 8.83558V12.67L69.2275 7.29186C69.1783 6.99308 69.1291 6.79389 69.0306 6.6445C68.7844 6.19632 68.2921 5.89754 67.6521 5.84774V5.59875H73.363V5.84774C72.6737 5.84774 72.2307 6.14653 72.0337 6.79389C71.886 7.19227 71.8368 7.88943 71.8368 8.83558V15.2594C71.8368 16.4546 71.9353 17.2513 72.1814 17.6497C72.4276 18.0481 72.8214 18.2473 73.363 18.2473V18.4963H67.6521V18.2473C68.3413 18.1975 68.7844 17.8489 68.9814 17.2513C69.1291 16.853 69.1783 16.2056 69.1783 15.3092V8.73599H69.2767Z" fill="#FF3D00"/>
<path d="M89.8067 18.6457C89.659 18.5959 89.5113 18.5959 89.3144 18.5959C89.1667 18.5959 89.0682 18.5959 88.9697 18.5959L85.8681 18.7453C84.3419 18.7453 83.0127 18.5959 81.8803 18.2473C80.5511 17.8489 79.3695 17.2513 78.3357 16.4048C77.2525 15.5084 76.4156 14.3631 75.8741 13.1182C75.3325 11.8234 75.0371 10.4789 75.0371 8.98498C75.0371 7.78985 75.234 6.69431 75.6771 5.59876C76.1202 4.55302 76.7602 3.65667 77.5972 2.90971C78.4341 2.21255 79.4187 1.66478 80.5019 1.36599C81.585 1.06721 82.7665 0.917817 83.9973 0.917817L86.8528 1.1668L87.6897 1.2664C87.9359 1.2664 88.1328 1.2166 88.3297 1.1668C88.4774 1.06721 88.6251 0.967614 88.7236 0.718628L89.9051 5.64856L89.7082 5.74816C89.2651 4.65262 88.4774 3.85586 87.4928 3.25829C86.4589 2.66072 85.3266 2.36194 84.0958 2.36194C83.2096 2.36194 82.3727 2.51133 81.7326 2.76032C81.0434 3.0093 80.4526 3.45748 79.9111 4.10485C79.3695 4.75221 78.9757 5.49917 78.6803 6.29593C78.3849 7.14248 78.2372 7.98904 78.2372 8.83559C78.2372 11.1761 78.9264 13.168 80.3542 14.8113C81.8311 16.5542 83.7019 17.4007 85.9666 17.4007C87.2466 17.4007 88.379 17.0521 89.3636 16.3052C90.299 15.608 91.0867 14.6121 91.6775 13.3173L91.9236 13.4169L89.8067 18.6457Z" fill="#FF3D00"/>
<path d="M102.459 8.73599L96.4034 14.1141V15.2594C96.4034 16.4546 96.5018 17.2513 96.748 17.6497C96.9942 18.0481 97.388 18.2473 97.9296 18.2473V18.4963H92.2187V18.2473C92.9079 18.1975 93.351 17.8489 93.5479 17.2513C93.6956 16.853 93.7449 16.2056 93.7449 15.3092V8.78578C93.7449 7.83963 93.6956 7.19227 93.5479 6.84369C93.3018 6.19632 92.8587 5.84774 92.1694 5.79794V5.59875H97.8803V5.84774C97.1911 5.84774 96.748 6.14653 96.5511 6.79389C96.4034 7.19227 96.3541 7.88943 96.3541 8.83558V12.67L102.41 7.29186C102.36 6.99308 102.311 6.79389 102.213 6.6445C101.967 6.19632 101.474 5.89754 100.834 5.84774V5.59875H106.545V5.84774C105.856 5.84774 105.413 6.14653 105.216 6.79389C105.068 7.19227 105.019 7.88943 105.019 8.83558V15.2594C105.019 16.4546 105.117 17.2513 105.364 17.6497C105.61 18.0481 106.004 18.2473 106.545 18.2473V18.4963H100.933V18.2473C101.622 18.1975 102.065 17.8489 102.262 17.2513C102.41 16.853 102.459 16.2056 102.459 15.3092V8.73599Z" fill="#FF3D00"/>
<path d="M114.767 15.2096C114.767 16.2055 114.816 16.8529 114.964 17.2015C115.21 17.8488 115.702 18.1476 116.441 18.1476V18.3966H110.484V18.1476C111.222 18.1476 111.665 17.799 111.912 17.1517C112.059 16.7533 112.158 16.0561 112.158 15.1598V6.79383C110.632 6.79383 109.499 7.09262 108.761 7.69018C108.121 8.18816 107.53 9.13431 106.988 10.4788L106.742 10.3792L108.022 5.20032C108.121 5.34971 108.268 5.4493 108.416 5.4493C108.564 5.4991 108.761 5.4991 109.056 5.4991H109.548H117.425H117.918C118.164 5.4991 118.361 5.4991 118.558 5.4493C118.706 5.39951 118.853 5.29991 118.952 5.20032L120.232 10.3792L119.986 10.4788C119.493 9.13431 118.902 8.23795 118.213 7.69018C117.425 7.09262 116.293 6.79383 114.816 6.79383V15.2096H114.767Z" fill="#FF3D00"/>
<path d="M130.521 8.73599L124.466 14.1141V15.2594C124.466 16.4546 124.564 17.2513 124.81 17.6497C125.057 18.0481 125.451 18.2473 125.992 18.2473V18.4963H120.281V18.2473C120.97 18.1975 121.413 17.8489 121.61 17.2513C121.758 16.853 121.807 16.2056 121.807 15.3092V8.78578C121.807 7.83963 121.758 7.19227 121.61 6.84369C121.364 6.19632 120.921 5.84774 120.232 5.79794V5.59875H125.943V5.84774C125.254 5.84774 124.81 6.14653 124.614 6.79389C124.466 7.19227 124.417 7.88943 124.417 8.83558V12.67L130.472 7.29186C130.423 6.99308 130.374 6.79389 130.275 6.6445C130.029 6.19632 129.586 5.89754 128.897 5.84774V5.59875H134.608V5.84774C133.918 5.84774 133.475 6.14653 133.278 6.79389C133.131 7.19227 133.081 7.88943 133.081 8.83558V15.2594C133.081 16.4546 133.18 17.2513 133.426 17.6497C133.672 18.0481 134.066 18.2473 134.608 18.2473V18.4963H128.995V18.2473C129.684 18.1975 130.128 17.8489 130.324 17.2513C130.472 16.853 130.521 16.2056 130.521 15.3092V8.73599Z" fill="#FF3D00"/>
<path d="M139.137 7.24215C138.053 7.24215 137.118 6.3458 137.118 5.25026C137.118 4.10492 138.053 3.25836 139.137 3.25836C140.22 3.25836 141.106 4.15472 141.106 5.25026C141.106 6.3458 140.22 7.24215 139.137 7.24215ZM139.137 7.64053C140.466 7.64053 141.5 6.59479 141.5 5.25026C141.5 3.90573 140.466 2.85999 139.137 2.85999C137.807 2.85999 136.773 3.90573 136.773 5.25026C136.773 6.59479 137.807 7.64053 139.137 7.64053ZM139.481 5.34985C139.924 5.34985 140.269 5.15066 140.269 4.65269C140.269 4.10492 139.826 3.95553 139.334 3.95553H138.201V6.54499H138.546V5.34985H138.989L139.777 6.54499H140.22L139.481 5.34985ZM138.595 4.95147V4.30411H139.284C139.58 4.30411 139.924 4.35391 139.924 4.60289C139.924 5.00127 139.383 4.95147 139.038 4.95147H138.595Z" fill="#FF3D00"/>
</g>
<defs>
<clipPath id="clip0">
<rect width="141" height="23" fill="white" transform="translate(0.5)"/>
</clipPath>
</defs>
</svg>

<svg width="142" height="23" viewBox="0 0 142 23" fill="none" xmlns="http://www.w3.org/2000/svg"><g clip-path="url(#clip0)" fill="#FF3D00"><path d="M2.174 4.702c0-1.195-.148-2.041-.394-2.44-.246-.398-.69-.647-1.28-.747v-.199h6.154v.249c-.59.05-.985.249-1.28.647-.246.349-.394 1.146-.394 2.291V7.69l2.216-1.793c1.181-.996 2.018-1.743 2.51-2.29.64-.648.936-1.146.936-1.444 0-.25-.05-.399-.148-.449-.098-.1-.295-.149-.541-.149v-.249h6.203v.249c-.886 0-1.723.249-2.61.797-.246.15-.984.697-2.215 1.743l-1.92 1.593c1.23 1.195 2.363 2.54 3.299 4.084.886 1.394 1.673 2.987 2.363 4.73l.492 1.195c.345.847.59 1.345.69 1.544.344.548.787.847 1.28.946v.25h-5.613v-.25c.59-.1.886-.448.886-.996 0-.647-.246-1.494-.69-2.639a23.304 23.304 0 00-1.23-2.49c-.492-.846-.985-1.643-1.575-2.39-.542-.747-1.182-1.494-1.92-2.29L4.93 9.382v5.677c0 .996.05 1.693.197 2.092.246.647.738 1.045 1.477 1.095v.25H.5v-.25c.738-.1 1.182-.498 1.428-1.046.147-.398.246-1.045.246-1.942V4.702z"/><path d="M25.953 8.636c.098-.348.246-.747.344-1.095.099-.399.197-.697.197-.897 0-.248-.049-.448-.197-.597-.147-.15-.393-.25-.738-.25V5.6h3.938v.249c-.492.05-.935.348-1.23.846-.148.25-.345.697-.591 1.494l-3.988 11.603c-.59 1.743-1.28 2.938-2.018 3.486-.64.498-1.428.747-2.413.747-.443 0-.886-.1-1.33-.25-.442-.149-.836-.398-1.23-.696l1.477-3.536.197.15c-.05.199-.098.398-.098.647 0 .548.147.996.393 1.394.296.398.64.598 1.133.598.738 0 1.329-.349 1.772-1.096a4.507 4.507 0 00.542-2.191c0-.548-.148-1.245-.394-1.992-.099-.299-.394-.946-.788-1.942l-3.003-6.972a9.922 9.922 0 00-.69-1.444c-.344-.498-.738-.747-1.18-.747V5.6h5.169v.249c-.296.05-.493.1-.64.249-.148.15-.197.299-.197.547 0 .2.049.449.147.698.099.298.197.498.246.647l3.003 7.17 2.167-6.523zm15.015 7.769c.246.348.542.747.788 1.095.345.399.739.648 1.083.698v.248h-5.317v-.248c.542-.05.788-.3.788-.648 0-.249-.148-.598-.394-1.046-.246-.348-.443-.647-.59-.846l-1.92-2.938-1.872 2.34c-1.033 1.345-1.526 2.191-1.526 2.54 0 .299.246.498.788.598v.248h-3.988v-.248c.296-.05.59-.2.837-.399.246-.2.64-.647 1.182-1.344l3.84-4.781L32.5 8.537c-.837-1.195-1.33-1.893-1.477-2.042-.444-.448-.837-.647-1.182-.647v-.25h5.514v.25c-.59.05-.837.299-.837.697 0 .2.099.498.295.797.148.249.296.547.591.896l.985 1.444 1.132-1.544c.345-.498.59-.796.64-.946.197-.348.296-.647.296-.846 0-.349-.247-.498-.788-.498v-.25h4.283v.25c-.59.05-1.23.398-1.87.996-.148.15-.64.747-1.428 1.743l-1.724 2.091 4.037 5.727zm12.752-5.428h-6.105v4.233c0 1.195.098 2.041.345 2.39.246.398.64.598 1.181.598v.248H43.48v-.248c.689 0 1.132-.3 1.329-.947.147-.398.197-1.095.197-2.041V8.786c0-1.195-.099-1.992-.345-2.39-.246-.399-.64-.598-1.181-.598v-.2h5.71v.25c-.689 0-1.132.299-1.329.946-.148.398-.197 1.046-.197 2.042V9.88h6.056V8.836c0-1.196-.099-1.992-.345-2.39-.246-.4-.64-.548-1.181-.548v-.3h5.71v.25c-.689 0-1.132.299-1.329.946-.148.398-.197 1.095-.197 2.042v6.423c0 1.196.099 1.992.345 2.39.246.4.64.598 1.181.598v.25h-5.71v-.25c.689 0 1.132-.299 1.329-.946.147-.398.197-1.095.197-2.042v-4.282zm15.557-2.241l-6.056 5.378v1.145c0 1.196.099 1.992.345 2.39.246.4.64.598 1.181.598v.25h-5.71v-.25c.689-.05 1.132-.398 1.329-.996.148-.398.197-1.045.197-1.942V8.786c0-.946-.05-1.594-.197-1.942-.246-.648-.69-.996-1.379-1.046v-.2h5.711v.25c-.69 0-1.132.299-1.33.946-.147.398-.196 1.095-.196 2.042v3.834l6.056-5.378c-.05-.299-.099-.498-.197-.647-.247-.449-.739-.747-1.379-.797v-.25h5.711v.25c-.69 0-1.132.299-1.33.946-.147.398-.196 1.095-.196 2.042v6.423c0 1.196.098 1.992.344 2.39.247.4.64.598 1.182.598v.25h-5.71v-.25c.688-.05 1.131-.398 1.328-.996.148-.398.197-1.045.197-1.942V8.736h.099zm20.53 9.91c-.148-.05-.296-.05-.493-.05h-.344l-3.102.15c-1.526 0-2.855-.15-3.988-.499-1.329-.398-2.51-.996-3.544-1.842a8.868 8.868 0 01-2.462-3.287 10.498 10.498 0 01-.837-4.133c0-1.195.197-2.29.64-3.386a7.457 7.457 0 011.92-2.69 7.805 7.805 0 012.905-1.543 13.188 13.188 0 013.495-.448l2.856.249.837.1c.246 0 .443-.05.64-.1.147-.1.295-.2.394-.448l1.181 4.93-.197.1c-.443-1.096-1.23-1.893-2.215-2.49a6.669 6.669 0 00-3.397-.897c-.886 0-1.723.15-2.363.398-.69.25-1.28.697-1.822 1.345-.541.647-.935 1.394-1.23 2.19a7.666 7.666 0 00-.444 2.54c0 2.341.69 4.333 2.117 5.976 1.477 1.743 3.348 2.59 5.613 2.59 1.28 0 2.412-.349 3.397-1.096.935-.697 1.723-1.693 2.313-2.988l.247.1-2.117 5.229zm12.652-9.91l-6.056 5.378v1.145c0 1.196.099 1.992.345 2.39.246.4.64.598 1.182.598v.25h-5.711v-.25c.689-.05 1.132-.398 1.329-.996.148-.398.197-1.045.197-1.942V8.786c0-.946-.05-1.594-.197-1.942-.246-.648-.69-.996-1.379-1.046v-.2h5.711v.25c-.689 0-1.132.299-1.329.946-.148.398-.197 1.095-.197 2.042v3.834l6.056-5.378c-.05-.299-.099-.498-.197-.647-.246-.449-.739-.747-1.379-.797v-.25h5.711v.25c-.689 0-1.132.299-1.329.946-.148.398-.197 1.095-.197 2.042v6.423c0 1.196.098 1.992.345 2.39.246.4.64.598 1.181.598v.25h-5.612v-.25c.689-.05 1.132-.398 1.329-.996.148-.398.197-1.045.197-1.942V8.736zm12.308 6.474c0 .995.049 1.643.197 1.991.246.648.738.947 1.477.947v.249h-5.957v-.25c.738 0 1.181-.348 1.428-.995.147-.399.246-1.096.246-1.992V6.794c-1.526 0-2.659.299-3.397.896-.64.498-1.231 1.444-1.773 2.789l-.246-.1 1.28-5.179c.099.15.246.25.394.25.148.05.345.05.64.05h8.862c.246 0 .443 0 .64-.05.148-.05.295-.15.394-.25l1.28 5.18-.246.099c-.493-1.345-1.084-2.241-1.773-2.789-.788-.597-1.92-.896-3.397-.896v8.416h-.049zm15.754-6.474l-6.055 5.378v1.145c0 1.196.098 1.992.344 2.39.247.4.641.598 1.182.598v.25h-5.711v-.25c.689-.05 1.132-.398 1.329-.996.148-.398.197-1.045.197-1.942V8.786c0-.946-.049-1.594-.197-1.942-.246-.648-.689-.996-1.378-1.046v-.2h5.711v.25c-.689 0-1.133.299-1.329.946-.148.398-.197 1.095-.197 2.042v3.834l6.055-5.378c-.049-.299-.098-.498-.197-.647-.246-.449-.689-.747-1.378-.797v-.25h5.711v.25c-.69 0-1.133.299-1.33.946-.147.398-.197 1.095-.197 2.042v6.423c0 1.196.099 1.992.345 2.39.246.4.64.598 1.182.598v.25h-5.613v-.25c.689-.05 1.133-.398 1.329-.996.148-.398.197-1.045.197-1.942V8.736zm8.616-1.494c-1.084 0-2.019-.896-2.019-1.992 0-1.145.935-1.992 2.019-1.992 1.083 0 1.969.897 1.969 1.992 0 1.096-.886 1.992-1.969 1.992zm0 .399c1.329 0 2.363-1.046 2.363-2.39 0-1.345-1.034-2.391-2.363-2.391-1.33 0-2.364 1.046-2.364 2.39 0 1.345 1.034 2.39 2.364 2.39zm.344-2.291c.443 0 .788-.2.788-.697 0-.548-.443-.697-.935-.697h-1.133v2.589h.345V5.35h.443l.788 1.195h.443l-.739-1.195zm-.886-.399v-.647h.689c.296 0 .64.05.64.299 0 .398-.541.348-.886.348h-.443z"/></g><defs><clipPath id="clip0"><path fill="#fff" transform="translate(.5)" d="M0 0h141v23H0z"/></clipPath></defs></svg>
